icons/doors-open-two.svg

<?xml version="1.0" encoding="UTF-8"?><svg xmlns="http://www.w3.org/2000/svg" viewBox="0 0 50 50"><g id="uuid-5ebd18a4-1c5c-42c0-9630-1da7d9c06f83"><path d="M24.39,40.87v.05s.04,0,.06,0c-.02-.01-.04-.03-.06-.04Z"/><g><path d="M48.59,2.46h-11.4L28.36,.96c-.15-.02-.29,.02-.41,.11-.11,.09-.18,.23-.18,.38v1h-5.56V1.46c0-.15-.06-.29-.18-.38-.11-.1-.26-.13-.41-.11l-8.83,1.49H1.41c-.28,0-.5,.22-.5,.5V44.89c0,.28,.22,.5,.5,.5H3.78c.07,.14,.2,.25,.36,.27l17.5,2.96s.06,0,.08,0c.12,0,.23-.04,.32-.12,.11-.09,.18-.23,.18-.38v-2.74h5.56v2.74c0,.15,.06,.29,.18,.38,.09,.08,.21,.12,.32,.12,.03,0,.06,0,.08,0l17.5-2.96c.16-.03,.29-.13,.36-.27h2.37c.28,0,.5-.22,.5-.5V2.96c0-.28-.22-.5-.5-.5ZM3.72,4.42V44.39H1.91V3.46H6.9l-2.76,.47c-.24,.04-.42,.25-.42,.49ZM21.22,47.54l-16.5-2.79V4.84L21.22,2.05V47.54Zm6.56-3.15h-5.56V3.46h5.56V44.39Zm17.5,.36l-16.5,2.79V2.05l16.5,2.79V44.75Zm2.81-.36h-1.81V4.42c0-.24-.18-.45-.42-.49l-2.76-.47h4.99V44.39Z"/><ellipse cx="18.49" cy="26.43" rx="1.17" ry="1.83"/><ellipse cx="31.51" cy="26.43" rx="1.17" ry="1.83"/></g></g><g id="uuid-a0a38f94-dce3-4722-8098-fa3823e13614"><text transform="translate(.08 54.89)" font-family="Roboto-Regular, Roboto" font-size="6"><tspan x="0" y="0">doors-open-two</tspan></text></g></svg>

<svg xmlns="http://www.w3.org/2000/svg" viewBox="0 0 50 50"><defs><style>.cls-1{font-size:6px;font-family:Roboto-Regular, Roboto;}</style></defs><g id="ICONS"><path d="M24.39,40.87v.05h.06Z"/><path d="M48.59,2.46H37.19L28.36,1a.52.52,0,0,0-.4.11.53.53,0,0,0-.18.39v1H22.22v-1A.53.53,0,0,0,22,1.07a.52.52,0,0,0-.4-.11l-8.83,1.5H1.41a.5.5,0,0,0-.5.5V44.89a.5.5,0,0,0,.5.5H3.78a.51.51,0,0,0,.36.28l17.5,3h.08a.51.51,0,0,0,.5-.5V45.39h5.56v2.75a.51.51,0,0,0,.5.5h.08l17.5-3a.51.51,0,0,0,.36-.28h2.37a.5.5,0,0,0,.5-.5V3A.5.5,0,0,0,48.59,2.46Zm-44.87,2v40H1.91V3.46h5l-2.76.46A.51.51,0,0,0,3.72,4.42Zm17.5,43.12L4.72,44.75V4.84l16.5-2.79Zm6.56-3.15H22.22V3.46h5.56Zm17.5.36-16.5,2.79V2.05l16.5,2.79Zm2.81-.36H46.28v-40a.51.51,0,0,0-.42-.5L43.1,3.46h5Z"/><ellipse cx="18.49" cy="26.43" rx="1.17" ry="1.83"/><ellipse cx="31.51" cy="26.43" rx="1.17" ry="1.83"/></g><g id="LABELS"><text class="cls-1" transform="translate(0.08 54.89)">doors-open-two</text></g></svg>
